!!!OTL: Frau von Weissenburg Graf Friedrich taet' ausreiten,
!!!ARE: Europa, Mitteleuropa, Oesterreich, Niederoesterreich, Deutsch - Altenburg
!!!YOR: 1, S. 307
!!    1914 aufgezeichnet (vor)
!!!SCT: Q0030C
!!!YEM: Copyright 1995, estate of Helmut Schaffrath.
**kern
*ICvox
*Ivox
*M6/8
*k[f#c#g#d#]
*E:
{8B
=1
4e
8e
4B
8B
=2
4.f#
4B}
{8B
=3
4f#
16f#
16f#
8f#
8e
8f#
=4
4.g#
4r}
{8g#
=5
8a
8b
8cc#
8f#
8g#
8a
=6
8g#
8a
8b
8e
8f#}
{8g#
=7
8f#
8g#
8a
8B
8c#
8d#
=8
4e
8g#
4b}
{8g#
=9
8a
8b
8cc#
8f#
8g#
8a
=10
8g#
8a
8b
8e
8f#}
{8g#
=11
8f#
8g#
8a
8B
8c#
8d#
=12
4.e
4r}
==
!!!AGN: Ballade, Ehebruch, Mord, Moral
!!!ONB: ESAC (Essen Associative Code) Database: BALLADE
!!!AMT: compound duple
!!!AIN: vox
!!!EED: Helmut Schaffrath
!!!EEV: 1.0
*-
